X: 35016
T: Roll Her In The Rushes
R: reel
M: 4/4
K: Eminor
A2Ac BGG2|ABcd edcB|A2Ac BGGB|cABG E2D2:|
|:e2ef d2de|c2cd edcd|e2ef d2de|cABG E2D2:|

